X:515
T: DIE VOEGLEIN IN DEM WALDE
N: E1788
O: Europa, Mitteleuropa, Deutschland, Uckermark, Prenzlau
R: Scherz - Lied; Handwerksburschen -, Abschieds -, Wander - Lied
M: 4/4
L: 1/16
K: C
E,4 | G,4E,4C4A,4 | G,6E,2G,4
C4 | A,4A,4A,2B,2C2A,2 | G,6E,2G,4
C4 | C,6D,2E,4F,4 | G,4G,4G,4
C4 | A,3F,F,2F,2F,4D4 | B,3G,G,2G,2G,4
F4 | E4F2D2C4D4 | E4E4E2D2C2
B,2 | A,3F,F,2F,2F,4D4 | B,3G,G,2G,2G,4
F4 | E4F2D2C4D4 | C8z4

@@@ Tune index: 5199
